X:8
T:Schottis efter Axel Sjölander
T:(SmM V-8)
R:Schottis
O:Tingsås, Småland
S:Axel Sjölander
N:1978, uppteckad av Magnus Gustafsson.
B:Småländsk Musiktradition
M:2/4
L:1/8
K:G
{Bc}d/d/d/c/ BG|G/G/A/G/ FE|D/D/D/A/ c/A/F/A/|G/G/G/B/ {e}d2|
{Bc}d/d/d/c/ BG|G/G/A/G/ FE|D/D/D/A/ c/A/F/A/|GG G2:|
|:D/D/B/A/ G/G/G/F/|E/E/c/B/ A/A/A/G/|F/F/F/A/ D/D/E/F/|G/D/G/B/ D2|
|D/D/B/A/ G/G/G/F/|E/E/c/B/ A/A/A/G/|Fe d/c/A/F/| GG G2:|

